X:1
T:French polka (name unknown)
M:2/4
L:1/8
R:Polka
Z:Steve Mansfield tradtunes 2003-2-20
K:G
AA/B/ AG  | FG A2  | AB/c/ d>c | BA    BG | AA/B/ AG | FG A2 |
AB/c/ d>c | BA G2 :: dd    e>d | cB    A2 | AB/c/ dc |
BA    BG  | dd e>d | cB    A2  | AB/c/ dc | BA    G2 :|
